svgs/sharp-light/square-ring.svg

<svg xmlns="http://www.w3.org/2000/svg" viewBox="0 0 448 512"><!--! Font Awesome Pro 6.6.0 by @fontawesome - https://fontawesome.com License - https://fontawesome.com/license (Commercial License) Copyright 2024 Fonticons, Inc. --><path d="M416 64l0 384L32 448 32 64l384 0zM32 32L0 32 0 64 0 448l0 32 32 0 384 0 32 0 0-32 0-384 0-32-32 0L32 32zm192 96a128 128 0 1 1 0 256 128 128 0 1 1 0-256zm0 288a160 160 0 1 0 0-320 160 160 0 1 0 0 320zM160 256a64 64 0 1 1 128 0 64 64 0 1 1 -128 0zm160 0a96 96 0 1 0 -192 0 96 96 0 1 0 192 0z"/></svg>

<svg xmlns="http://www.w3.org/2000/svg" viewBox="0 0 448 512"><!--! Font Awesome Pro 6.4.0 by @fontawesome - https://fontawesome.com License - https://fontawesome.com/license (Commercial License) Copyright 2023 Fonticons, Inc. --><path d="M416 64V448H32V64H416zM32 32H0V64 448v32H32 416h32V448 64 32H416 32zm192 96a128 128 0 1 1 0 256 128 128 0 1 1 0-256zm0 288a160 160 0 1 0 0-320 160 160 0 1 0 0 320zM160 256a64 64 0 1 1 128 0 64 64 0 1 1 -128 0zm160 0a96 96 0 1 0 -192 0 96 96 0 1 0 192 0z"/></svg>
